public/formular-icons/english/lower-o.svg

<svg style="vertical-align:-.025ex" xmlns="http://www.w3.org/2000/svg" width="1.097ex" height="1.023ex" viewBox="0 -441 485 452" xmlns:xlink="http://www.w3.org/1999/xlink"><defs><path id="a" d="M201-11q-75 0-121 49T34 156q0 65 30 123t82 101q76 61 155 61 32 0 40-1 13-3 26-7t35-16 36-30 26-49 12-70q0-107-86-193T201-11Zm-80 131q0-50 26-72t59-22q44 0 83 32t62 84q9 21 23 74t14 92q0 44-18 67-24 30-64 30-63 0-111-58-37-44-55-117t-19-110Z"/></defs><g stroke="currentColor" fill="currentColor" stroke-width="0"><use data-c="1D45C" xlink:href="#a" transform="scale(1 -1)"/></g></svg>

<svg style="vertical-align: -0.025ex" xmlns="http://www.w3.org/2000/svg" width="1.097ex" height="1.023ex" role="img" focusable="false" viewBox="0 -441 485 452" xmlns:xlink="http://www.w3.org/1999/xlink"><defs><path id="MJX-61-TEX-I-1D45C" d="M201 -11Q126 -11 80 38T34 156Q34 221 64 279T146 380Q222 441 301 441Q333 441 341 440Q354 437 367 433T402 417T438 387T464 338T476 268Q476 161 390 75T201 -11ZM121 120Q121 70 147 48T206 26Q250 26 289 58T351 142Q360 163 374 216T388 308Q388 352 370 375Q346 405 306 405Q243 405 195 347Q158 303 140 230T121 120Z"></path></defs><g stroke="currentColor" fill="currentColor" stroke-width="0" transform="scale(1,-1)"><g data-mml-node="math"><g data-mml-node="mi"><use data-c="1D45C" xlink:href="#MJX-61-TEX-I-1D45C"></use></g></g></g></svg>
